icons/user-follow-fill.svg

<svg xmlns="http://www.w3.org/2000/svg" width="24" height="24" fill="none"><g clip-path="url(#a)"><g><path fill="#121212" d="M13 14.062V22H4C3.99989 20.8649 4.24133 19.7428 4.70827 18.7083C5.1752 17.6737 5.85695 16.7503 6.70822 15.9995C7.55948 15.2487 8.56078 14.6876 9.64557 14.3536C10.7304 14.0195 11.8738 13.9201 13 14.062ZM12 13C8.685 13 6 10.315 6 7C6 3.685 8.685 1 12 1C15.315 1 18 3.685 18 7C18 10.315 15.315 13 12 13ZM17.793 19.914L21.328 16.379L22.743 17.793L17.793 22.743L14.257 19.207L15.672 17.793L17.792 19.914H17.793Z"/></g></g><defs><clipPath id="a"><rect width="24" height="24" fill="white"/></clipPath></defs></svg>

<svg width="24" height="24" fill="none" xmlns="http://www.w3.org/2000/svg"><g clip-path="url(#a)"><path d="M13 14.062V22H4a8 8 0 0 1 9-7.938ZM12 13c-3.315 0-6-2.685-6-6s2.685-6 6-6 6 2.685 6 6-2.685 6-6 6Zm5.793 6.914 3.535-3.535 1.415 1.414-4.95 4.95-3.536-3.536 1.415-1.414 2.12 2.121h.001Z" /></g><defs><clipPath id="a"><path fill="#fff" d="M0 0h24v24H0z"/></clipPath></defs></svg>
